X:12
T:Birds'complaint
%%VWML:SBG-1-2-579-0
F:http://www.vwml.org/record/SBG/1/2/579
Z:Original Sibelius transcriptions by M. & S. Graebe
M:6/8
I:linebreak $
K:D
V:1 treble nm="P1"
V:1
 A | dc B A2 F | d2 d A3 A/ | Bc B A2 F | A4 z A | Bc d e2 e |$ f2 e d2 B | A d A B2 c | d4 z d | %9
w: |||||||||
 c2 B A A B | F2 ^G A3 B/ |$ A2 ^G FE F | A4 z A | Bc d e2 A | f2 e d2 B | Ad A B2 c |$ d4 z z | %17
w: ||||||||
 !fermata!d2 !fermata!d !fermata!e2 !fermata!e | !fermata!f2 d z z A | Bc d e2 c | d4 z x | %21
w: Ha- ha! Ha- ha!|Ha- ha! And|love when thourt loved a-|gain|

